public/services-computer-icon.svg

<svg width="70" height="52" viewBox="0 0 70 52" fill="none" xmlns="http://www.w3.org/2000/svg">
<mask id="path-1-inside-1_2886_1785" fill="white">
<path d="M62.5269 45.3228C62.3241 45.3228 62.1258 45.3832 61.9572 45.4963C61.7886 45.6094 61.6571 45.7702 61.5795 45.9583C61.5019 46.1464 61.4816 46.3535 61.5212 46.5532C61.5607 46.7529 61.6584 46.9363 61.8018 47.0803C61.9452 47.2243 62.1279 47.3223 62.3268 47.3621C62.5257 47.4018 62.7319 47.3814 62.9193 47.3035C63.1066 47.2256 63.2668 47.0936 63.3794 46.9243C63.4921 46.755 63.5523 46.5559 63.5523 46.3523C63.5523 46.2171 63.5257 46.0832 63.4742 45.9583C63.4227 45.8334 63.3472 45.7199 63.2519 45.6243C63.1567 45.5287 63.0437 45.4529 62.9193 45.4011C62.7949 45.3494 62.6615 45.3228 62.5269 45.3228ZM66.9238 26.9186H66.0342V19.0905C66.033 18.0897 65.6366 17.1302 64.9317 16.4225C64.2269 15.7148 63.2712 15.3167 62.2744 15.3156H54.1964V4.27495C54.1953 3.27411 53.7988 2.31459 53.094 1.60689C52.3891 0.899195 51.4335 0.501119 50.4367 0.5H3.75977C2.76296 0.501119 1.80729 0.899195 1.10244 1.60689C0.397589 2.31459 0.00111456 3.27411 0 4.27495L0 37.6521C0.00111456 38.653 0.397589 39.6125 1.10244 40.3202C1.80729 41.0279 2.76296 41.426 3.75977 41.4271H17.0438C17.2458 42.6989 17.0168 44.0019 16.3933 45.1274L14.6034 48.3378C14.4231 48.6611 14.3302 49.0261 14.3338 49.3967C14.3375 49.7672 14.4376 50.1303 14.6242 50.4499C14.8108 50.7696 15.0775 51.0347 15.3977 51.2189C15.7179 51.4031 16.0805 51.5 16.4496 51.5H25.4422C25.4879 51.4997 25.5336 51.4962 25.5789 51.4898C25.6656 51.4958 25.7529 51.5 25.8411 51.5H66.9238C67.7394 51.4991 68.5213 51.1734 69.098 50.5943C69.6747 50.0153 69.9991 49.2303 70 48.4114V30.0072C69.9991 29.1883 69.6747 28.4033 69.098 27.8243C68.5213 27.2452 67.7394 26.9195 66.9238 26.9186ZM62.2744 17.3747C62.7275 17.3752 63.1619 17.5561 63.4823 17.8778C63.8026 18.1995 63.9829 18.6356 63.9834 19.0906V26.9186H61.617V20.7802C61.617 20.645 61.5904 20.5111 61.5389 20.3862C61.4874 20.2613 61.4119 20.1478 61.3166 20.0522C61.2214 19.9566 61.1084 19.8807 60.984 19.829C60.8596 19.7772 60.7262 19.7506 60.5916 19.7506H29.9212C29.7866 19.7506 29.6532 19.7772 29.5288 19.829C29.4044 19.8807 29.2914 19.9566 29.1962 20.0522C29.101 20.1478 29.0254 20.2613 28.9739 20.3862C28.9224 20.5111 28.8958 20.645 28.8959 20.7802V40.9005C28.8958 41.0357 28.9224 41.1696 28.9739 41.2945C29.0254 41.4194 29.101 41.5329 29.1962 41.6285C29.2914 41.7241 29.4044 41.8 29.5288 41.8517C29.6532 41.9034 29.7866 41.9301 29.9212 41.9301H55.0537V44.306H26.5295V19.0905C26.53 18.6356 26.7102 18.1995 27.0306 17.8778C27.351 17.5561 27.7853 17.3752 28.2384 17.3747L62.2744 17.3747ZM2.05078 4.27495C2.05129 3.82002 2.23151 3.38388 2.55189 3.0622C2.87228 2.74052 3.30667 2.55957 3.75977 2.55906H50.4367C50.8898 2.55957 51.3242 2.74052 51.6445 3.0622C51.9649 3.38388 52.1451 3.82002 52.1456 4.27495V15.3156H28.2384C27.2416 15.3167 26.286 15.7148 25.5811 16.4225C24.8763 17.1302 24.4798 18.0897 24.4787 19.0905V31.7039H2.05078V4.27495ZM3.75977 39.368C3.30667 39.3675 2.87228 39.1866 2.55189 38.8649C2.23151 38.5432 2.05129 38.1071 2.05078 37.6521V33.763H24.4787V39.368H17.8759C17.8724 39.368 17.8689 39.368 17.8654 39.368H3.75977ZM22.0813 45.7366V47.7251C22.0809 48.3218 22.2224 48.9101 22.4939 49.4409H16.4496C16.4382 49.4409 16.4271 49.4379 16.4172 49.4323C16.4074 49.4266 16.3992 49.4184 16.3934 49.4086C16.3877 49.3988 16.3846 49.3876 16.3845 49.3762C16.3844 49.3648 16.3873 49.3536 16.3928 49.3436L18.1828 46.133C18.9761 44.7009 19.3013 43.0548 19.1124 41.4271H24.4787V44.306H23.5064C23.1286 44.3064 22.7664 44.4573 22.4992 44.7255C22.2321 44.9937 22.0818 45.3573 22.0813 45.7366ZM25.8411 49.4409C25.388 49.4404 24.9536 49.2595 24.6332 48.9378C24.3129 48.6161 24.1326 48.18 24.1321 47.7251V46.3651H55.0537V48.4114C55.0535 48.7622 55.1132 49.1104 55.23 49.4409H25.8411ZM55.0537 30.0072V39.871H30.9466V21.8097H59.5662V26.9186H58.1298C57.3143 26.9195 56.5324 27.2452 55.9557 27.8243C55.379 28.4033 55.0546 29.1883 55.0537 30.0072ZM67.9492 48.4114C67.9489 48.6844 67.8408 48.9461 67.6486 49.1391C67.4563 49.3321 67.1957 49.4406 66.9238 49.4409H58.1298C57.858 49.4406 57.5973 49.3321 57.4051 49.1391C57.2129 48.9461 57.1047 48.6844 57.1044 48.4114V30.0072C57.1047 29.7342 57.2129 29.4726 57.4051 29.2795C57.5973 29.0865 57.858 28.978 58.1298 28.9777H60.4855C60.556 28.985 60.6271 28.985 60.6976 28.9777H64.9027C64.9732 28.985 65.0443 28.985 65.1148 28.9777H66.9238C67.1957 28.978 67.4563 29.0865 67.6486 29.2795C67.8408 29.4726 67.9489 29.7342 67.9492 30.0072V48.4114Z"/>
</mask>
<path d="M62.5269 45.3228C62.3241 45.3228 62.1258 45.3832 61.9572 45.4963C61.7886 45.6094 61.6571 45.7702 61.5795 45.9583C61.5019 46.1464 61.4816 46.3535 61.5212 46.5532C61.5607 46.7529 61.6584 46.9363 61.8018 47.0803C61.9452 47.2243 62.1279 47.3223 62.3268 47.3621C62.5257 47.4018 62.7319 47.3814 62.9193 47.3035C63.1066 47.2256 63.2668 47.0936 63.3794 46.9243C63.4921 46.755 63.5523 46.5559 63.5523 46.3523C63.5523 46.2171 63.5257 46.0832 63.4742 45.9583C63.4227 45.8334 63.3472 45.7199 63.2519 45.6243C63.1567 45.5287 63.0437 45.4529 62.9193 45.4011C62.7949 45.3494 62.6615 45.3228 62.5269 45.3228ZM66.9238 26.9186H66.0342V19.0905C66.033 18.0897 65.6366 17.1302 64.9317 16.4225C64.2269 15.7148 63.2712 15.3167 62.2744 15.3156H54.1964V4.27495C54.1953 3.27411 53.7988 2.31459 53.094 1.60689C52.3891 0.899195 51.4335 0.501119 50.4367 0.5H3.75977C2.76296 0.501119 1.80729 0.899195 1.10244 1.60689C0.397589 2.31459 0.00111456 3.27411 0 4.27495L0 37.6521C0.00111456 38.653 0.397589 39.6125 1.10244 40.3202C1.80729 41.0279 2.76296 41.426 3.75977 41.4271H17.0438C17.2458 42.6989 17.0168 44.0019 16.3933 45.1274L14.6034 48.3378C14.4231 48.6611 14.3302 49.0261 14.3338 49.3967C14.3375 49.7672 14.4376 50.1303 14.6242 50.4499C14.8108 50.7696 15.0775 51.0347 15.3977 51.2189C15.7179 51.4031 16.0805 51.5 16.4496 51.5H25.4422C25.4879 51.4997 25.5336 51.4962 25.5789 51.4898C25.6656 51.4958 25.7529 51.5 25.8411 51.5H66.9238C67.7394 51.4991 68.5213 51.1734 69.098 50.5943C69.6747 50.0153 69.9991 49.2303 70 48.4114V30.0072C69.9991 29.1883 69.6747 28.4033 69.098 27.8243C68.5213 27.2452 67.7394 26.9195 66.9238 26.9186ZM62.2744 17.3747C62.7275 17.3752 63.1619 17.5561 63.4823 17.8778C63.8026 18.1995 63.9829 18.6356 63.9834 19.0906V26.9186H61.617V20.7802C61.617 20.645 61.5904 20.5111 61.5389 20.3862C61.4874 20.2613 61.4119 20.1478 61.3166 20.0522C61.2214 19.9566 61.1084 19.8807 60.984 19.829C60.8596 19.7772 60.7262 19.7506 60.5916 19.7506H29.9212C29.7866 19.7506 29.6532 19.7772 29.5288 19.829C29.4044 19.8807 29.2914 19.9566 29.1962 20.0522C29.101 20.1478 29.0254 20.2613 28.9739 20.3862C28.9224 20.5111 28.8958 20.645 28.8959 20.7802V40.9005C28.8958 41.0357 28.9224 41.1696 28.9739 41.2945C29.0254 41.4194 29.101 41.5329 29.1962 41.6285C29.2914 41.7241 29.4044 41.8 29.5288 41.8517C29.6532 41.9034 29.7866 41.9301 29.9212 41.9301H55.0537V44.306H26.5295V19.0905C26.53 18.6356 26.7102 18.1995 27.0306 17.8778C27.351 17.5561 27.7853 17.3752 28.2384 17.3747L62.2744 17.3747ZM2.05078 4.27495C2.05129 3.82002 2.23151 3.38388 2.55189 3.0622C2.87228 2.74052 3.30667 2.55957 3.75977 2.55906H50.4367C50.8898 2.55957 51.3242 2.74052 51.6445 3.0622C51.9649 3.38388 52.1451 3.82002 52.1456 4.27495V15.3156H28.2384C27.2416 15.3167 26.286 15.7148 25.5811 16.4225C24.8763 17.1302 24.4798 18.0897 24.4787 19.0905V31.7039H2.05078V4.27495ZM3.75977 39.368C3.30667 39.3675 2.87228 39.1866 2.55189 38.8649C2.23151 38.5432 2.05129 38.1071 2.05078 37.6521V33.763H24.4787V39.368H17.8759C17.8724 39.368 17.8689 39.368 17.8654 39.368H3.75977ZM22.0813 45.7366V47.7251C22.0809 48.3218 22.2224 48.9101 22.4939 49.4409H16.4496C16.4382 49.4409 16.4271 49.4379 16.4172 49.4323C16.4074 49.4266 16.3992 49.4184 16.3934 49.4086C16.3877 49.3988 16.3846 49.3876 16.3845 49.3762C16.3844 49.3648 16.3873 49.3536 16.3928 49.3436L18.1828 46.133C18.9761 44.7009 19.3013 43.0548 19.1124 41.4271H24.4787V44.306H23.5064C23.1286 44.3064 22.7664 44.4573 22.4992 44.7255C22.2321 44.9937 22.0818 45.3573 22.0813 45.7366ZM25.8411 49.4409C25.388 49.4404 24.9536 49.2595 24.6332 48.9378C24.3129 48.6161 24.1326 48.18 24.1321 47.7251V46.3651H55.0537V48.4114C55.0535 48.7622 55.1132 49.1104 55.23 49.4409H25.8411ZM55.0537 30.0072V39.871H30.9466V21.8097H59.5662V26.9186H58.1298C57.3143 26.9195 56.5324 27.2452 55.9557 27.8243C55.379 28.4033 55.0546 29.1883 55.0537 30.0072ZM67.9492 48.4114C67.9489 48.6844 67.8408 48.9461 67.6486 49.1391C67.4563 49.3321 67.1957 49.4406 66.9238 49.4409H58.1298C57.858 49.4406 57.5973 49.3321 57.4051 49.1391C57.2129 48.9461 57.1047 48.6844 57.1044 48.4114V30.0072C57.1047 29.7342 57.2129 29.4726 57.4051 29.2795C57.5973 29.0865 57.858 28.978 58.1298 28.9777H60.4855C60.556 28.985 60.6271 28.985 60.6976 28.9777H64.9027C64.9732 28.985 65.0443 28.985 65.1148 28.9777H66.9238C67.1957 28.978 67.4563 29.0865 67.6486 29.2795C67.8408 29.4726 67.9489 29.7342 67.9492 30.0072V48.4114Z" fill="#0C2244" stroke="#0C2244" stroke-width="22" mask="url(#path-1-inside-1_2886_1785)"/>
</svg>

<svg xmlns="http://www.w3.org/2000/svg" width="70" height="52" fill="none"><path fill="#292732" d="M62.527 45.323a1.02 1.02 0 0 0-.947.635 1.033 1.033 0 0 0 .747 1.404 1.02 1.02 0 0 0 1.052-.438 1.032 1.032 0 0 0-.46-1.523 1 1 0 0 0-.392-.078m4.397-18.404h-.89V19.09c-.001-1-.397-1.96-1.102-2.668a3.76 3.76 0 0 0-2.658-1.106h-8.078V4.275c0-1-.397-1.96-1.102-2.668A3.76 3.76 0 0 0 50.437.5H3.76c-.997.001-1.953.4-2.658 1.107A3.79 3.79 0 0 0 0 4.275v33.377c.001 1.001.398 1.96 1.102 2.668a3.76 3.76 0 0 0 2.658 1.107h13.284a5.77 5.77 0 0 1-.65 3.7l-1.79 3.21a2.13 2.13 0 0 0 .794 2.882c.32.184.683.281 1.052.281h8.992q.07 0 .137-.01.13.01.262.01h41.083c.815 0 1.597-.327 2.174-.906A3.1 3.1 0 0 0 70 48.411V30.007c0-.819-.325-1.604-.902-2.183a3.07 3.07 0 0 0-2.174-.905m-4.65-9.544c.453 0 .888.181 1.208.503s.5.758.501 1.212v7.829h-2.366V20.78a1.03 1.03 0 0 0-.633-.951 1 1 0 0 0-.392-.078h-30.67a1.02 1.02 0 0 0-.948.635 1 1 0 0 0-.078.394V40.9a1.03 1.03 0 0 0 .633.952c.124.051.258.078.392.078h25.133v2.376H26.529V19.091c.001-.455.181-.892.502-1.213.32-.322.754-.503 1.207-.503zM2.051 4.275c0-.455.18-.891.5-1.213.321-.321.756-.502 1.209-.503h46.677c.453 0 .887.182 1.208.503.32.322.5.758.5 1.213v11.04H28.239c-.996.002-1.952.4-2.657 1.108a3.79 3.79 0 0 0-1.102 2.668v12.613H2.05zM3.76 39.368c-.453 0-.888-.181-1.208-.503s-.5-.758-.501-1.213v-3.889h22.428v5.605H3.76m18.321 6.369v1.988c0 .597.141 1.185.413 1.716H16.45a.065.065 0 0 1-.066-.065q0-.017.009-.032l1.79-3.211a7.85 7.85 0 0 0 .93-4.706h5.366v2.879h-.973c-.377 0-.74.151-1.007.42a1.44 1.44 0 0 0-.418 1.01m3.76 3.704c-.453 0-.887-.181-1.208-.503s-.5-.758-.5-1.213v-1.36h30.92v2.046c0 .351.06.7.177 1.03zm29.213-19.434v9.864H30.947V21.81h28.62v5.109H58.13c-.816 0-1.598.326-2.174.905a3.1 3.1 0 0 0-.902 2.183m12.895 18.404a1.025 1.025 0 0 1-1.025 1.03H58.13a1.024 1.024 0 0 1-1.026-1.03V30.007c0-.273.109-.534.301-.728.192-.192.453-.301.725-.301h2.355q.107.01.213 0h4.205q.105.01.212 0h1.809a1.025 1.025 0 0 1 1.025 1.03z"/></svg>
